!!!OTL: Das Maedchen und die Hasel.
!!!ARE: Europa, Mitteleuropa, Deutschland
!!!SCT: A0065
!!!TXL: @@GMH
!!!YEM: Copyright 1995, estate of Helmut Schaffrath.
**kern	**text
*M4/2	*
*met(c|)	*
*clefC3	*
*k[b-]	*
*F:ion	*
=1	=1
!LO:TX:a:t=jon.	!
2ryy	.
{2F	Es
2F	wolt
2F	ein
=2	=2
2c	magd
2c	ʒum
2f	dan-
2f	-tʒe
=3	=3
1e	gan,
2r}	.
{2c	ſucht
=4	=4
2B-	ro-
2A	-ſen
2G	auf
2F	der
=5	=5
*lig	*
2c	hei-
1f	.
2e	.
=6	=6
1d	.
*Xlig	*
1c	-den.
=7	=7
!LO:TX:a:t=NB.	!
2r}	.
{2c	Was
2c	fand
2c	ſie
=8	=8
2A	an
2A	dem
2d	we-
2d	-ge
=9	=9
1c	ſtan?
2r}	.
{2c	ein
=10	=10
2d	ha-
2c	-ſel,
2A	die
2G	war
=11	=11
*lig	*
2F	grü-
1B-	.
2A	.
=12	=12
1G	.
*Xlig	*
1F/ll}	-ne.
==	==
!!!GTL: Balladen und Romanzen (erzählende Volkslieder)
!!!AGN: Romanze, Ballade, Lied
!! Melodie Zeile eins und zwei bei Schmeltzel 1544 Quodlibet 19 (vgl.
!!    A0054, diese Angabe kann nicht stimmen!), Zeile drei und vier
!!    von Boehme ergaenzt.
!!!ONB: ESAC (Essen Associative Code) Database: ALTDEU
!!!AMT: simple quadruple
!!!AIN: vox
!!!EED: Helmut Schaffrath
!!!EEV: 1.0
!!!RDF**kern: i = editorial accidental
!!!RDF**kern: l = terminal long
!!!AMD: Ionian
!!!URL-scan: https://rosdok.uni-rostock.de/mcrviewer/recordIdentifier/rosdok_ppn738218359/iview2/phys_0222.iview2?x=-425.8853427895981&y=2255.3205674006604&scale=0.4823261117445838&rotation=0&layout=singlePageLayout&logicalDiv=log_0007
!!!ENC: Anna Maria Matuszewska
!!!EEV: 2024/19/02
*-	*-
